X: 1171
T: Gurty's Frolics.
C:Gillan.
B:O'Neill's Music of Ireland
N:O'Neill's - 1171
Z:Transcribed by Stephen Foy (shf@access.digex.net)
Z:abc 1.6
M:9/8
R:slipjig
K:D
A,DD A,DD FEF | A,DD DFA GFE | A,DD A,DD F z F | GFG ECE GFE :|
|: FDF A2 F A2 F | FDF A2 F GFE | FDF A2 F A2 F | GFG ECE GFE :|
|: Add def gfg | Add dfa gfe | Add def g2 g | gfg ece gfe :|
|: fdf a2 f a2 g | fdf a2 f gfe | fdf a2 f a2 f | gfg ece gfe :|
|: aff dff dff | aff dfa gfe | aff dff dff | gfg ece gfe :|
|: dff agf/e/ d2 A | dff agf gfe | dff agf/e/ def | gfg ece gfe :|
|: f/g/af ded dAF | DFA def gfe | f/g/af ded def | gfg ece gfe :|
|: a/g/fe dfe d2 d | afd def gec | d/f/ec dec dAF | G/A/BA GEF GFE :|
|: A2 A dcB A2 B | AFD DFD EFG | AFA BGB cBA | GFG ECE GFE :|


